!!!SOCIAL_FUNCTION:	songs of medicine men's dance
!!!PDT:	1956
!!!OTL: No_17_Song_of_Medicine_Men's_Dance_(c).krn
!!!LANG: Non-Tone
!!!LING_GROUP: Muskogean
!!!REG: Florida
**kern
*staff1
=1-
*clefF4
*k[b-]
*M3/4
2r
8.r
16d\
=2
(4.c\
16.B-\LL
32A\JJk)
8A\L
16c\L
16c\JJ
=3||
*M3/8
4c\
8c\
=4||
*M3/4
16c\LK
[8.A\J
8.A\L]
16A\Jk
8A\L
8B-\J
=5||
*M3/8
8A\L
8F\
32A\LK
16.A\JJ
=6||
*M3/4
4.F\
8F\
8F\L
8F\J
=7||
*M3/8
8A\L
8F\
32A\LK
16.A\JJ
=8||
*M4/4
4.F\
8F\
8F\L
8F\
8.F\
16c\Jk
=9||
*M3/4
4.A\
8A\
8A\L
8B-\J
=10||
*M3/8
8A\L
8F\
32A\LK
16.A\JJ
=11||
*M3/4
4.F\
8F\
8F\L
8F\J
=12||
*M3/8
8A\L
8F\
32A\LK
16.A\JJ
=13||
*M3/4
4.F\
8F\
8F\L
8F\J
=14
4F\
2r
==
*-
